X:0802
T:Miss Maule of Panmure's Reel.
S:Aird v5 p1
M:C
L:1/8
Q:1/2=100
I: :: ||
Z:Jack Campin * www.campin.me.uk * 2009
K:D
(B/c/d) Tc>B AFFd| AdFd      AdFd|(B/c/d) Tc>B AFFd| AFdF         E/E/E E2:|
(f/g/a) Tag  fddc|(B/c/d) Ad FdAd|(f/g/a) Ta>g fddf| A<Fd>F       E/E/E E2 |
(f/g/a) Ta>g fddc| B/c/d  Ad FdAd| fage        fdec|(d/c/B/c/) dF E/E/E E2|]
<end>
<start>
